X: 39405
T: Tap Room, The
R: reel
M: 4/4
K: Eminor
E2BE dB B2|dBAF DEFD|E2BE dB B2|dBAc BEED|
E2BE dBB^c|dBAF DEFD|E2BE dB B2|dBA=c BEE2||
B2 eg faef|BdAF DEFD|B2 eg faef|BdAc BEED|
B2 eg f2 eg|fdd^c d2 fg|afge fde^c|dBA=c BEE2||

